ion/school.svg

<svg viewBox="0 0 512 512" xmlns="http://www.w3.org/2000/svg"><g><path d="M256 368v0c-2.79-.01-5.53-.73-7.94-2.11L108 285.84h-.001c-3.83-2.21-8.72-.9-10.93 2.92 -.71 1.21-1.08 2.6-1.08 4.01v75.22 0c-.01 5.81 3.14 11.17 8.23 14l144 80 0 0c4.83 2.68 10.7 2.68 15.54-.001l144-80v0c5.08-2.83 8.23-8.19 8.23-14v-75.22 0c0-4.42-3.57-8.01-7.99-8.02 -1.41-.01-2.8.36-4.02 1.07l-140.06 80.05v0c-2.42 1.38-5.16 2.1-7.94 2.11Z"/><path d="M495.92 190.5s0-.08 0-.11v0c-.53-5.15-3.51-9.73-8-12.28l-224-128v0c-4.92-2.82-10.97-2.82-15.88 0l-224 128h0c-7.68 4.38-10.34 14.16-5.95 21.83 1.41 2.47 3.47 4.53 5.94 5.94l224 128v0c4.91 2.81 10.96 2.81 15.88 0l197.08-112.61v0c.95-.56 2.17-.23 2.73.73 .17.3.26.65.26 1v144.53c0 8.61 6.62 16 15.23 16.43v0c8.82.42 16.32-6.39 16.75-15.22 .01-.26.01-.52.01-.77v-176 0c-.01-.51-.03-1.01-.08-1.5Z"/></g></svg>

<svg xmlns="http://www.w3.org/2000/svg" width="512" height="512" viewBox="0 0 512 512"><path d="M256,368a16,16,0,0,1-7.94-2.11L108,285.84a8,8,0,0,0-12,6.94V368a16,16,0,0,0,8.23,14l144,80a16,16,0,0,0,15.54,0l144-80A16,16,0,0,0,416,368V292.78a8,8,0,0,0-12-6.94L263.94,365.89A16,16,0,0,1,256,368Z"/><path d="M495.92,190.5s0-.08,0-.11a16,16,0,0,0-8-12.28l-224-128a16,16,0,0,0-15.88,0l-224,128a16,16,0,0,0,0,27.78l224,128a16,16,0,0,0,15.88,0L461,221.28a2,2,0,0,1,3,1.74V367.55c0,8.61,6.62,16,15.23,16.43A16,16,0,0,0,496,368V192A14.76,14.76,0,0,0,495.92,190.5Z"/></svg>
